X:1
T:Haul Away, Joe
M:6/8
L:1/4
K:Bb
 F/2| B3/2 B A/2| F3/2- F D/2| E E/2 D E/2| F- G/2 A F/2| B3/2 B A/2|\
 F3/2- F z/2| E E/2 F3/2| B,/2 z2||
